X:83
T: "Ultra Marin"
M: 4/4
L: 1/4
K: F
g/f/ d f g | a f c2 | 
g/f/ d c/B/d/c/ | B<B B2 | 
c/B/ G B c | d B F2 | 
c/B/G B/d/c/B/ | A<G G2 | 

